!!!!SEGMENT: pl-wnifc--2374-n--001_mikuli-karol--sieben-lieder-op-27-es-muss-was-wunderbares-sein.krn
!!!cenid: 18xx:3890
!!!COM: Mikuli, Karol
!!!COM-rismID: pe106110
!!!CDT: 1819-1897
!!!CNT:
!!!GTL: Sieben lieder op. 27
!!!OTL: Es muss was Wunderbares sein
!!!PDT: 1880
!!!AGN:
!!!SMS-siglum: PL-Wnifc
!!!SMS-shelfmark: 2374/n
!!!SMS-shelfwork: 001 G
!!!SMS-variant:
!!!SMS-altvar:
!!!NIFC-rismSourceID: 1001155256
!!!NIFC-islandoraID: nifc:211968
!!!URL-pdf-islandora: https://repozytorium.nifc.pl/islandora/object/nifc%3A211968/datastream/PDF/view
!!!URL-scan: https://polish.musicsources.pl/pl/lokalizacje/galeria/druki-muzyczne/16819 @EN{Scan on Polish Music Sources Website} @PL{Skany w portalu Dziedzictwo Muzyki Polskiej w otwartym dostępie}
!!!ONB-nifc:
!!!AIN: 2 piano 1 tenor
!!!key: A
!!!OMD:
!!!OMD-mod: Langsam, träumerisch
**kern	**kern	**dynam	**kern	**text	**dynam
*part3	*part2	*part2	*part1	*part1	*part1
*staff3	*staff2	*	*staff1	*staff1	*
*I"Pianoforte.	*I"Pianoforte.	*	*I"Singstimme.	*	*
*mI"Pianoforte	*mI"Pianoforte	*	*mI"Voce	*	*
*I'pf	*I'pf	*	*I'V	*	*
*ICklav	*ICklav	*	*ICvox	*	*
*Ipiano	*Ipiano	*	*Itenor	*	*
*clefF4	*clefG2	*	*clefG2	*	*
*k[f#c#g#]	*k[f#c#g#]	*	*k[f#c#g#]	*	*
*A:	*A:	*	*A:	*	*
*M4/4	*M4/4	*	*M4/4	*	*
*met(c)	*met(c)	*	*met(c)	*	*
!	!	!	!LO:TX:a:B:t=Langsam, träumerisch.:mod=	!	!LO:DY:a
4r	4r	.	4e/	Es	p
=1	=1	=1	=1	=1	=1
1c# [1A	(2e/	p	4.e/	muss	.
.	.	.	8e/	was	.
.	2e#X/	.	8cc#\	Wun-	.
.	.	.	8cc#\	-der-	.
.	.	.	8b\	-ba-	.
.	.	.	8a/	-res	.
=2	=2	=2	=2	=2	=2
[1d [1B 1A_	4.f#/)	.	4a/	sein	.
.	.	.	4r	.	.
.	(8f#/	.	.	.	.
.	8ff#\L)	.	4r	.	.
.	(8ff#\	.	.	.	.
.	8ee\	.	4f#/	um's	.
.	8dd\J)	.	.	.	.
=3	=3	=3	=3	=3	=3
*^	*	*	*	*	*
1A]	2.d/] 2.B/]	4.dd\	.	4.gn/	Lie-	.
.	.	([<8dd\	.	8g/	-ben	.
.	.	8bbL 8dd\])	.	(4g#X/	zwei-	.
.	.	(8bb 8dd\	.	.	.	.
.	(8eL 8c#/	8aa 8cc#\	.	8a/)	.	.
.	8fnJ 8d/)	8gg#J 8b\)	.	8b\	-er	.
*v	*v	*	*	*	*	*
=4	=4	=4	=4	=4	=4
*	*^	*	*	*	*
1e 1A	(4.aa/	2a\	.	4dd\	See-	.
.	.	.	.	4cc#\	-len,	.
.	8ee/)	.	.	.	.	.
.	8ee/L	2cc#\	.	2r	.	.
.	(8ee/	.	.	.	.	.
.	8ff#/	.	.	.	.	.
.	8gg#/J)	.	.	.	.	.
!!LO:LB:g=original	!	!	!	!	!	!
=5	=5	=5	=5	=5	=5	=5
2d#X 2F#\	(<8bb/L	2cc#\	.	4r	.	.
.	8aa/	.	.	.	.	.
.	8ff#/	.	.	8r	.	.
.	8cc#/J)	.	.	8cc#\	sich	.
2G#\	(8cc#/L	2ryy	.	8ee\	schlies-	.
.	8b#X/	.	.	8dd#X\	-sen	.
.	8g#/	.	.	8b#X\	ganz	.
.	8B#X/J)	.	.	8g#/	ein-	.
*	*v	*v	*	*	*	*
=6	=6	=6	=6	=6	=6
!	!	!	!	!	!LO:DY:a
(2C#/	(8.d#X/L	.	8.f#/	-an-	>
.	16e/Jk)	.	16e/	-der	.
.	[2e/	.	4e/	ein,	]
2Cn/)	.	.	8r	.	.
.	.	.	8e/	sich	.
.	[4gn [4e/]	.	[4gn^>/	nie	.
=7	=7	=7	=7	=7	=7
*^	*^	*	*	*	*
!LO:SIC:s=4rA:v	!	!	!	!	!	!	!
4r	1BB	8g/L]	8e\L]	.	8g/]	.	.
.	.	8g#X/J	8d#X\J	.	8g#X/	ein	.
(<4E#X/	.	[4b 4gn^/	4dn\	.	[4b/	Wort	.
4F#/	.	4.b/]	4.f# 4.d#X\	.	4.b/]	.	.
4A/)	.	.	.	.	.	.	.
.	.	8f#/	8cn\	.	8d#X/	ver-	.
*	*	*v	*v	*	*	*	*
=8	=8	=8	=8	=8	=8	=8
(4A/	2En\	(4d#X 4cn/	.	4f#/	-heh-	.
4G#X/)	.	4e 4B/)	.	4e/	-len,	.
2r	2r	(4e'/	.	4r	.	.
.	.	4e'/)	.	4e/	und	.
*v	*v	*	*	*	*	*
=9	=9	=9	=9	=9	=9
!	!	!	!	!	!LO:DY:a
!	!	!	!	!	!LO:DY:a
2B-X 2Cn\	(>2ee 2g#X 2e/	mf	4.ee\	Freud	mf >
.	.	.	8ee\	und	.
!	!	!	!	!	!LO:DY:a
2A 2Fn\	2a 2d#X/)	p	4a/	Leid	] p
.	.	.	4a/	und	.
!!LO:LB:g=original	!	!	!	!	!
=10	=10	=10	=10	=10	=10
*^	*	*	*	*	*
!	!	!	!	!	!	!LO:DY:a
!	!	!	!	!	!	!LO:DY:a
2B-X 2Cn\	2ryyyy	(>2ee 2g#X 2e/	mf	4.ee\	Glück	mf >
.	.	.	.	8ee\	und	.
!	!	!	!	!	!	!LO:DY:a
!	!	!	!	!	!LO:MO:mod=Not	!
4A/	2Fn\	[2a 2d#X/)	p	2a/	Noth	] p
4Bn/	.	.	.	.	.	.
=11	=11	=11	=11	=11	=11	=11
*	*	*^	*	*	*	*
!	!	!	!	!	!	!	!LO:DY:a
!	!	!	!	!	!	!	!LO:MO:null:mod=.
[1cn	2E\	2a/]	2e\	.	8r	.	<
!	!	!	!	!	!	!	!LO:MO:null:mod=<
.	.	.	.	.	8a/	so	.
.	.	.	.	.	8a/	mit	.
!	!	!	!	!	!	!LO:MO:mod=ein-	!
.	.	.	.	.	8a/	ei-	.
!	!	!	!	!	!	!LO:MO:mod=-an-	!
.	2D\	4ee/	4fn\	.	4ee\	-nan-	.
.	.	4dd/	(4a-X\	.	4dd\	-der	[[
=12	=12	=12	=12	=12	=12	=12	=12
!	!	!	!	!	!	!	!LO:DY:a
2cn/]	4D#X\	2ccn/	4a\)	.	2ccn\	tra-	>
.	4E\	.	2.gn\	.	.	.	.
!	!	!	!	!	!	!	!LO:MO:null:mod=]
2dn/	2Gn\	2b/	.	.	4b\	-gen,	.
!	!	!	!	!	!	!	!LO:MO:null:mod=.
.	.	.	.	.	8r	.	]
.	.	.	.	.	8gn/	vom	.
*	*	*v	*v	*	*	*	*
=13	=13	=13	=13	=13	=13	=13
!	!	!	!	!	!LO:MO:mod=ers-	!
2e 2c#X/	1Gn	(>2b-X 2gn/	f	4.ggn^\	er-	f
!	!	!	!	!	!LO:MO:mod=-ten	!
.	.	.	.	8gg\	-sten	.
[2d/	.	2bn 2fn/)	.	4b\	Kuss	.
.	.	.	.	4r	.	.
*v	*v	*	*	*	*	*
=14	=14	=14	=14	=14	=14
*	*^	*	*	*	*
!	!	!	!	!LO:TUP:a:problem:klamra łukowa	!	!LO:DY:a
2d] 2G#X\	(2b#X/	1e	p	6ee~\	bis	p
.	.	.	.	6ee~\	in	.
.	.	.	.	6ee~\	den	.
2c# 2A\	2cc#/)	.	.	4.gn/	Tod	.
.	.	.	.	8g/	sich	.
=15	=15	=15	=15	=15	=15	=15
[2B\	[2dd/	2d\	.	4.gn/	nur	.
.	.	.	.	8f#/	von	.
!	!LO:TUP:a:problem:klamra łukowa	!	!	!LO:TUP:a:problem:klamra łukowa	!	!
2B] 2D\	6dd/]	2fn\	.	6fn/	Lie-	.
.	6cc#/	.	.	6cc#\	.	.
.	6b/	.	.	6b\	-be	.
*	*v	*v	*	*	*	*
!!LO:LB:g=original	!	!	!	!	!
=16	=16	=16	=16	=16	=16
*^	*	*	*	*	*
!	!	!LO:TUP:b:problem:klamra łukowa	!	!	!	!
4c#/	1E	(12e/L	.	2a/	sa-	.
.	.	12a/	.	.	.	.
.	.	12ee/J	.	.	.	.
4d#X 4cn/	.	2ffn^\	.	.	.	.
2dn 2B/	.	.	.	4g#/	-gen.	.
.	.	4ee\)	.	4r	.	.
=17	=17	=17	=17	=17	=17	=17
!	!	!LO:TX:a:i:t=mit Ausdruck	!	!	!	!
4r	1c#X [1A	4.ee\	.	8r	.	.
!	!	!	!	!	!	!LO:DY:a
.	.	.	.	8e/	Es	ppp
4e/	.	.	.	8e/	muss	.
.	.	(8ee\	.	8e/	was	.
2e#X/	.	8ccc#L 8cc#\)	.	4.e#X/	Wun-	.
.	.	(8ccc# 8cc#\	.	.	.	.
.	.	8bb 8b\	.	.	.	.
.	.	8aaJ 8a\)	.	8e#/	-der-	.
*v	*v	*	*	*	*	*
=18	=18	=18	=18	=18	=18
1f# 1d 1B 1A]	4.aa 4.a\	.	4f#/	-ba-	.
.	.	.	4f#/	-res,	.
.	(8aa\	.	.	.	.
.	8fff#L 8ff#\)	.	4r	.	.
.	(8fff# 8ff#\	<	.	.	.
.	8eee 8ee\	.	4f#/	was	.
.	8dddJ 8dd\)	.	.	.	.
=19	=19	=19	=19	=19	=19
*^	*	*	*	*	*
2gn/	[1d 1B [1A	4.ddd 4.dd\	.	4.gn/	Wun-	.
.	.	[8ddd [8dd\	.	8g/	-der-	.
2g#X/	.	8ddd]L 8dd\]	.	4.g#X/	-ba-	.
*	*	*8va	*	*	*	*
.	.	(8dddd 8ddd\	.	.	.	.
.	.	8cccc# 8ccc#\	.	.	.	.
.	.	8bbbJ 8bb\)	.	8g#/	-res	.
=20	=20	=20	=20	=20	=20	=20
*	*	*^	*	*	*	*
2d/]	2A\_	(4.bbb 4.bb/	(2ggn\	.	4.a/	sein.	.
.	.	8bbb-X 8bb-X/	.	.	8r	.	.
2c#/	4.A\]	8aaaL 8aa/)	8gg\L)	.	2r	.	.
.	.	(8aaa 8aa/	8ff#\	.	.	.	.
.	.	8ggg#X 8gg#X/	8ffn\	.	.	.	.
.	8A#X\	8gggnJ 8ggn/)	8ee\J	.	.	.	.
*v	*v	*	*	*	*	*	*
*	*v	*v	*	*	*	*
*	*X8va	*	*	*	*
!!LO:LB:g=original	!	!	!	!	!
=21	=21	=21	=21	=21	=21
4d 4B\	(8gggnL 8ggn\	.	1r	.	.
.	8fff# 8ff#\	.	.	.	.
4r	8ddd 8dd\	.	.	.	.
.	8bbJ 8b\)	.	.	.	.
!LO:TUP:a:problem:klamra łukowa	!	!	!	!	!
*ped	*	*	*	*	*
(12EE\L	(4.ddd 4.dd^\	.	.	.	.
12E\	.	.	.	.	.
12A#X\J	.	.	.	.	.
4gn\)	.	.	.	.	.
.	8aa#X 8a#X\)	.	.	.	.
*Xped	*	*	*	*	*
=22	=22	=22	=22	=22	=22
*	*^	*	*	*	*
*ped	*	*	*	*	*	*
!LO:TUP:a:problem:klamra łukowa	!	!	!	!	!	!
6DD#X/	(2.ccc# 2.cc#/	2ryy	.	1r	.	.
6D#X\	.	.	.	.	.	.
[6An\	.	.	.	.	.	.
2A\_	.	4f#\	.	.	.	.
.	4cccn [4ccn/)	4r	.	.	.	.
*Xped	*	*	*	*	*	*
=23	=23	=23	=23	=23	=23	=23
*^	*	*	*	*	*	*
!	!	!	!	!LO:MO:mod=!null:null	!	!	!
!	!	!LO:TX:a:i:t=sehr gebunden	!	!LO:HP:a	!	!	!
8A/L]	4E\	8cc/L]	4gn\	>	1r	.	.
8A#X/	.	(8cc#X/	.	.	.	.	.
8B/	8D#X\L	8ff#/	8f#\	.	.	.	.
8Gn/J	8Dn\J	8a#X/J	4fn\	.	.	.	.
8G#X/L	8C#\L	8b/L	.	.	.	.	.
8An/	8Cn\	8ee/	8e\	.	.	.	.
8E/	8BB\	8gn/	4d\	.	.	.	.
!	!	!	!	!LO:MO:null:mod=]	!	!	!
8E#X/J	8BB-X\J	8g#X/J)	.	.	.	.	.
=24	=24	=24	=24	=24	=24	=24	=24
!	!	!	!	!LO:MO:null:mod=.	!	!	!
4F#X/	1AA	4.cc#X/	1c#	]	1r	.	.
2.Gn/	.	.	.	.	.	.	.
.	.	(<8cc#/	.	.	.	.	.
.	.	8ee/L)	.	.	.	.	.
.	.	(<8ee/	.	.	.	.	.
.	.	8dd/	.	.	.	.	.
.	.	8cc#/J)	.	.	.	.	.
*	*	*v	*v	*	*	*	*
=25	=25	=25	=25	=25	=25	=25
.	.	(>16qqd/LL	.	.	.	.
.	.	16qqa/	.	.	.	.
.	.	16qqdd/JJ	.	.	.	.
!LO:MO:mod=*ped:null	!	!	!	!	!	!
*null	*	*	*	*	*	*
!	!LO:MO:mod=*null:null	!	!	!	!	!
*	*ped	*	*	*	*	*
2F#/	1AA 1DD	4.aa\)	.	1r	.	.
!LO:MO:mod=*Xped:null	!	!	!	!	!	!
*null	*	*	*	*	*	*
!	!LO:MO:mod=*null:null	!	!	!	!	!
*	*Xped	*	*	*	*	*
.	.	(8aa\	.	.	.	.
*ped	*	*	*	*	*	*
2Fn/	.	8dddL 8dd\)	.	.	.	.
.	.	(8ddd 8dd\	.	.	.	.
.	.	8ccc# 8cc#\	.	.	.	.
.	.	8bbJ 8b\)	.	.	.	.
*Xped	*	*	*	*	*	*
*v	*v	*	*	*	*	*
=26	=26	=26	=26	=26	=26
!LO:MO:mod=*ped:null	!	!	!	!	!
*null	*	*	*	*	*
!	!LO:MO:mod=*null:null	!	!	!	!
*	*ped	*	*	*	*
(>8qAA 8qAAA/	.	.	.	.	.
1c# 1A 1E 1C#;<)	1eee 1aa 1ee;	.	1r	.	.
!LO:MO:mod=*Xped:null	!	!	!	!	!
*null	*	*	*	*	*
!	!LO:MO:mod=*null:null	!	!	!	!
*	*Xped	*	*	*	*
==	==	==	==	==	==
*-	*-	*-	*-	*-	*-
!!!system-decoration: s1{(s2,s3)}
!!!RDF**kern: N = linked
!!!RDF**kern: > = above
!!!RDF**kern: < = below
!!!filter-modern: sic -sq | shed -e "s/LO:DY:(a|b|rj)/LO:dy:$1/L" | modori -m | autostem -r | shed -e "s/yy//" | shed -k -e "s/\(y([^y])/($1/" | shed -e "s/^(\d+[\/\\]right)/$1yy/I; s/^(\d+[\/\\]left)/$1yy/I" | shed -k -e "s/[<>]//g" | shed -k -e "s/:TUP:/:tup:/L"
!!!ENC: Berenika Jozajtis
!!!END: 2022-07-23
!!!ENC: Natalia Wrzos
!!!END: 2022-08-17
!!!EED-modern: Antoni Szymański
!!!END-modern: 2022-08-27
!!!YEC: Copyright 2022 Narodowy Instytut Fryderyka Chopina (https://polishscores.org)
!!!YEM: Licence CC BY 4.0 (https://creativecommons.org/licenses/by/4.0)
